src/topics/icons/akka.svg

<svg height="182" preserveAspectRatio="xMidYMid" viewBox="0 0 256 182" width="256" xmlns="http://www.w3.org/2000/svg"><path d="m216.357806 174.771308c38.778059 31.000844 63.621941-61.56962 1.836287-78.6362869-51.848101-14.3662447-104.020253 10.2616029-156.3004221 67.7265819 0 0 96.5670881-35.321519 154.4641351 10.909705z" fill="#0b5567"/><path d="m62.7578059 163.105485c37.1578059-38.562025 98.9434601-81.5527424 156.5164561-65.6742614 13.394092 3.7805904 22.899578 11.5578064 29.05654 20.8472574l-54.440507-109.85316454c-7.777215-12.42194093-27.65232-9.82953587-38.886076-.32405064l-143.8784806 120.54683518c-13.0700422 11.233756-13.82616034 31.216878-1.72827005 43.314768 10.69367085 10.693671 27.65232065 11.665823 39.42616035 2.160338z" fill="#15a9ce"/></svg>

<?xml version="1.0" encoding="UTF-8"?>
<svg width="256px" height="182px" viewBox="0 0 256 182" version="1.1" xmlns="http://www.w3.org/2000/svg" xmlns:xlink="http://www.w3.org/1999/xlink" preserveAspectRatio="xMidYMid">
		<g>
				<path d="M216.357806,174.771308 C255.135865,205.772152 279.979747,113.201688 218.194093,96.1350211 C166.345992,81.7687764 114.17384,106.396624 61.8936709,163.861603 C61.8936709,163.861603 158.460759,128.540084 216.357806,174.771308 Z" fill="#0B5567"></path>
				<path d="M62.7578059,163.105485 C99.9156118,124.54346 161.701266,81.5527426 219.274262,97.4312236 C232.668354,101.211814 242.17384,108.98903 248.330802,118.278481 L193.890295,8.42531646 C186.11308,-3.99662447 166.237975,-1.40421941 155.004219,8.10126582 L11.1257384,128.648101 C-1.9443038,139.881857 -2.70042194,159.864979 9.39746835,171.962869 C20.0911392,182.65654 37.049789,183.628692 48.8236287,174.123207 L62.7578059,163.105485 Z" fill="#15A9CE"></path>
		</g>
</svg>
